X:1
T:Red-Haired Mary
M:2/4
L:1/8
K:F
 C3/2 C/2| CC CD| FF F G-| G2 z2| AA GA| GF D2-| D2 z D| CC CD| FF F G-|\
 G2 z G| Ac cA| GF F2-| F2 z2| C3/2 D/2 C3/2 D/2| F/2 F3/2 FG| A3/2 A/2 AA|\
 GF DD| C3/2 C/2 CD| FF F G/2G/2| Ac c A/2A/2| GG F2|

